assets/landing-page/Asset/backicon.svg

<svg width="24" height="24" viewBox="0 0 24 24" fill="none" xmlns="http://www.w3.org/2000/svg">
<path d="M19.8449 10.8198H8.12677C7.6845 10.8198 7.46 10.2878 7.76856 9.97095L12.579 5.03132C13.0295 4.56871 13.0295 3.80957 12.579 3.34697C12.3632 3.12485 12.0702 3.00003 11.7646 3.00003C11.4591 3.00003 11.1661 3.12485 10.9503 3.34697L3.33788 11.1638C2.88737 11.6264 2.88737 12.3737 3.33788 12.8363L10.9503 20.6531C11.4008 21.1157 12.1285 21.1157 12.579 20.6531C13.0295 20.1905 13.0295 19.4432 12.579 18.9806L7.76856 14.041C7.46 13.7241 7.6845 13.1921 8.12677 13.1921H19.8449C20.4802 13.1921 21 12.6583 21 12.006C21 11.3536 20.4802 10.8198 19.8449 10.8198Z" fill="black"/>
</svg>

<svg xmlns="http://www.w3.org/2000/svg" width="24" height="24" fill="none" viewBox="0 0 24 24"><path fill="#000" d="M19.845 10.82H8.127a.5.5 0 0 1-.358-.85l4.81-4.939a1.22 1.22 0 0 0 0-1.684A1.14 1.14 0 0 0 11.765 3c-.306 0-.599.125-.815.347l-7.612 7.817c-.45.462-.45 1.21 0 1.672l7.612 7.817a1.13 1.13 0 0 0 1.629 0c.45-.462.45-1.21 0-1.672l-4.81-4.94a.5.5 0 0 1 .358-.849h11.718c.635 0 1.155-.534 1.155-1.186s-.52-1.186-1.155-1.186"/></svg>
